dist/img/logom.svg

<svg width="180" height="69" viewBox="0 0 180 69" fill="none" xmlns="http://www.w3.org/2000/svg">
<path d="M56.359 0.0647984C55.6931 0.359711 53.3451 3.56259 50.4822 8.06171C47.6124 12.5746 42.4495 21.2573 42.5799 21.3602C42.6074 21.3876 42.9438 21.5111 43.3214 21.6345C45.0172 22.1901 46.7061 23.1708 48.1891 24.4808C48.6353 24.8786 48.6628 24.8854 48.7589 24.762C48.9168 24.5425 51.615 19.7896 52.9881 17.3206C55.9746 11.923 58.1303 7.71193 59.3318 4.9137C59.8055 3.80949 60.2449 2.43781 60.1969 2.23206C59.9428 1.18958 57.2447 -0.332989 56.359 0.0647984Z" fill="white"/>
<path d="M37.5887 4.94789C28.1006 5.50343 19.656 10.2837 14.4657 18.0475C12.3785 21.168 10.8887 24.6796 10.1267 28.2871C10.0168 28.8015 9.93442 29.2267 9.94129 29.2335C9.95502 29.2404 10.6072 29.2198 11.3968 29.1855C13.9713 29.0689 19.0656 28.9798 22.9171 28.9798H26.6794L26.8167 28.6643C27.0296 28.1568 27.6818 27.08 28.2036 26.3736C28.7871 25.578 30.2083 24.1515 30.9841 23.5959C32.3023 22.6358 33.7784 21.9156 35.2956 21.4767C36.6688 21.0857 37.2523 21.0034 38.955 20.9829L40.486 20.9623L41.7698 18.747C44.1728 14.6045 46.6924 10.4072 48.4088 7.69812C48.7658 7.13573 49.0541 6.6625 49.0404 6.65564C49.0267 6.64192 48.5804 6.4979 48.0381 6.31958C46.1432 5.71604 44.1728 5.29767 42.1131 5.0782C41.1382 4.97533 38.4607 4.89989 37.5887 4.94789Z" fill="white"/>
<path d="M57.8214 12.4646C55.8098 16.223 55.1851 17.3684 54.217 19.1036C53.5991 20.2146 52.4663 22.2036 51.7111 23.5273C50.9559 24.8441 50.2625 26.058 50.1732 26.2158L50.0085 26.497L50.3792 27.0731C50.8323 27.7658 51.2237 28.4928 51.5257 29.1992C51.6562 29.4941 51.7798 29.7341 51.8072 29.7341C51.8553 29.7341 65.9433 22.3476 65.9982 22.2927C66.0532 22.2447 64.8036 19.8854 64.2681 19.0144C62.9774 16.9226 61.7691 15.4069 59.9429 13.5826C59.1808 12.8213 58.4668 12.1354 58.3432 12.0531L58.1235 11.9022L57.8214 12.4646Z" fill="white"/>
<path d="M37.7672 23.5411C37.4719 23.5891 36.2773 24.8168 35.7487 25.6055C35.0278 26.6823 34.6022 27.711 34.3138 29.0553C34.0735 30.1663 34.1765 32.4913 34.506 33.3555C34.5747 33.527 34.5816 33.5132 34.7532 33.0606C34.8493 32.7931 34.966 32.4365 35.0141 32.2581C35.1239 31.8741 36.1194 30.3652 36.7167 29.6725C38.4949 27.6287 41.0214 26.4148 43.9049 26.2022C44.4199 26.161 45.3604 26.2227 46.2049 26.3393L46.4795 26.3805L46.1362 26.065C45.3261 25.3243 43.8088 24.467 42.5524 24.0418C41.3647 23.644 40.7674 23.5548 39.305 23.5274C38.5704 23.5137 37.877 23.5205 37.7672 23.5411Z" fill="white"/>
<path d="M35.1171 24.2064C33.6616 24.7551 32.4464 25.5438 31.2655 26.7166C30.4005 27.5807 29.6453 28.6301 29.1441 29.6657L28.8626 30.2555L28.9724 30.763C29.5903 33.7053 31.6363 36.1812 34.4305 37.3608C34.7532 37.498 35.1995 37.6626 35.426 37.7312C35.6526 37.7929 35.8792 37.8615 35.9341 37.8821C35.989 37.9026 35.8242 37.6626 35.5633 37.3403C35.3093 37.0248 35.0553 36.7573 35.0141 36.7436C34.8905 36.7161 33.9156 34.6518 33.6753 33.9179C32.6318 30.7082 33.3458 26.8675 35.4398 24.3984C35.6114 24.1995 35.7418 24.0212 35.7281 24.0075C35.7144 23.9938 35.4398 24.0829 35.1171 24.2064Z" fill="white"/>
<path d="M43.6647 27.2035C41.6394 27.3612 39.7308 28.1911 38.1242 29.6176C37.8633 29.844 37.6574 30.0497 37.6574 30.0772C37.6574 30.1046 37.8496 30.084 38.0899 30.036C38.3233 29.988 38.6117 29.9468 38.7353 29.94C38.852 29.94 38.9755 29.9057 38.9961 29.8714C39.0923 29.7137 41.2274 29.8508 42.3053 30.084C44.2551 30.5024 45.8411 31.3871 47.3377 32.8822C48.4294 33.9727 49.164 35.0838 49.6377 36.332C49.7064 36.5103 49.7819 36.6407 49.8093 36.6269C49.9192 36.5584 50.029 35.4199 50.029 34.4322C50.0222 32.7451 49.6926 31.2637 48.9923 29.7685C48.6559 29.0552 48.0449 28.0539 47.8389 27.8687C47.6673 27.7179 46.6787 27.4161 45.9715 27.3064C45.182 27.176 44.413 27.1418 43.6647 27.2035Z" fill="white"/>
<path d="M16.5459 30.9756C7.24999 31.1608 1.1946 31.6751 0.494317 32.3267C0.151041 32.649 0 33.3143 0 34.4665C0 36.1674 0.254024 36.6818 1.20147 36.8944C3.01396 37.3128 6.85179 37.6351 12.1863 37.8271C14.548 37.9094 21.3655 38.0329 24.0568 38.0329C25.7938 38.0329 25.9997 38.0192 25.9585 37.9232C25.7526 37.3882 25.5054 35.4953 25.5054 34.4665C25.5054 33.4378 25.7526 31.5448 25.9585 31.0099C25.9997 30.907 25.677 30.9001 22.5464 30.9139C20.6446 30.9207 17.9465 30.9482 16.5459 30.9756Z" fill="white"/>
<path d="M42.1199 31.0922C42.1199 31.1196 42.2298 31.2499 42.3602 31.3802C42.4907 31.5105 42.6829 31.73 42.779 31.874C42.882 32.018 42.9987 32.1346 43.0399 32.1346C43.1635 32.1346 44.2139 34.295 44.4405 35.0152C44.8318 36.2634 44.9005 36.7161 44.9005 38.17C44.9005 39.3223 44.8799 39.6035 44.7425 40.2207C44.413 41.6884 43.7608 43.1355 42.9369 44.2329C42.676 44.5758 42.4769 44.8639 42.4907 44.8707C42.5318 44.9187 43.4518 44.5415 44.0629 44.2329C46.15 43.1835 47.9899 41.2906 48.9992 39.1577C49.2532 38.6158 49.2532 38.5884 49.1845 38.2043C49.0747 37.6145 48.7383 36.6338 48.4362 36.0096C48.0243 35.1661 47.5025 34.4322 46.7747 33.6709C45.6763 32.5324 44.4748 31.7711 42.9781 31.2705C42.2435 31.0236 42.1199 31.003 42.1199 31.0922Z" fill="white"/>
<path d="M28.1761 32.7314C28.0319 33.6298 28.0525 35.5159 28.2104 36.3526C28.485 37.834 29.096 39.3634 29.8993 40.5568L30.3181 41.1809L30.8536 41.3524C31.9109 41.6885 32.467 41.7708 33.6753 41.7639C34.5816 41.7639 34.9523 41.7296 35.5153 41.613C36.7511 41.3455 37.877 40.8654 38.9137 40.1796C39.4149 39.8367 40.5958 38.7462 40.383 38.8148C40.3212 38.8354 39.9916 38.8902 39.6621 38.9382C39.3325 38.9862 39.0442 39.048 39.0236 39.0823C38.9618 39.1714 36.8129 39.0274 36.092 38.8902C34.7738 38.6365 33.2428 37.9849 32.1306 37.1962C31.3136 36.6269 30.1739 35.4747 29.6453 34.6997C29.1853 34.0276 28.5949 32.896 28.4575 32.4227C28.4095 32.265 28.3477 32.1347 28.3134 32.1347C28.2859 32.1347 28.2241 32.4022 28.1761 32.7314Z" fill="white"/>
<path d="M43.3009 35.996C43.1704 36.3458 43.0606 36.6956 43.0468 36.7847C43.0331 36.8739 42.7242 37.3951 42.3534 37.9507C40.5684 40.6323 38.1105 42.2303 35.0828 42.6624C34.0461 42.8133 32.5563 42.779 31.7874 42.587C31.5608 42.5321 32.2542 43.1356 32.9339 43.5951C34.1079 44.377 35.4536 44.9325 36.8679 45.2343C37.6505 45.3989 39.209 45.4812 40.0191 45.4058L40.5547 45.3578L41.1382 44.8022C43.2871 42.7447 44.3238 39.7064 43.8707 36.7985C43.7814 36.2086 43.6029 35.4473 43.548 35.3925C43.5343 35.3788 43.4244 35.6531 43.3009 35.996Z" fill="white"/>
<path d="M9.98932 39.8366C9.98932 40.1246 10.3944 41.8392 10.7171 42.9023C11.8087 46.5578 13.6006 49.9665 16.0035 52.9842C16.9647 54.1913 19.299 56.5231 20.4936 57.4696C23.4663 59.822 26.7206 61.5572 30.2083 62.6477C35.4398 64.2731 40.9253 64.4309 46.2736 63.0935C47.118 62.8809 48.8482 62.3528 49.0061 62.2636C49.0335 62.243 49.0061 62.147 48.9374 62.051C47.8595 60.4256 44.2345 54.4313 41.9208 50.4397L40.4654 47.9295L39.4836 47.9638C37.266 48.0393 35.2201 47.6072 33.2085 46.6401C30.4692 45.3233 28.3271 43.2452 27.0158 40.6322L26.6794 39.9738L21.1321 39.9326C16.0172 39.8915 12.7012 39.816 10.7651 39.7063L9.98932 39.6651V39.8366Z" fill="white"/>
<path d="M50.9352 40.9339C50.8322 41.1328 50.5851 41.5443 50.386 41.8598L50.0152 42.429L51.6561 45.289C54.0247 49.4246 55.9196 52.8538 57.6634 56.1596L58.1234 57.0375L58.4804 56.7426C59.1464 56.1802 60.4714 54.8634 61.206 54.0335C62.9087 52.0994 64.3848 49.9184 65.5039 47.6895L65.8746 46.9419L65.5862 46.8184C65.4215 46.7499 62.2359 45.3713 58.4942 43.7596C54.7593 42.1479 51.5669 40.7693 51.4021 40.7007L51.1137 40.5773L50.9352 40.9339Z" fill="white"/>
<path d="M48.093 44.521C46.6169 45.8172 44.7975 46.8528 43.0674 47.3741C42.7722 47.4632 42.5319 47.5524 42.5319 47.5798C42.5319 47.6964 46.3766 54.2188 48.2852 57.3394C50.1869 60.4394 52.2397 63.6217 53.4412 65.3294C54.4642 66.7903 55.8853 68.5597 56.2149 68.7929C56.4208 68.9369 57.0525 68.9232 57.5056 68.7655C58.7482 68.3403 59.9017 67.4692 60.1694 66.756C60.5058 65.8644 56.8602 58.4093 51.2648 48.5263C50.2899 46.798 48.7177 44.0546 48.6834 44.0203C48.6765 44.0135 48.4088 44.2398 48.093 44.521Z" fill="white"/>
<path d="M86.57 23.94V28.05H77.99V32.49H84.41V36.48H77.99V45H72.86V23.94H86.57ZM105.316 30.72C105.316 31.94 105.036 33.06 104.476 34.08C103.916 35.08 103.056 35.89 101.896 36.51C100.736 37.13 99.2963 37.44 97.5763 37.44H94.3963V45H89.2663V23.94H97.5763C99.2563 23.94 100.676 24.23 101.836 24.81C102.996 25.39 103.866 26.19 104.446 27.21C105.026 28.23 105.316 29.4 105.316 30.72ZM97.1863 33.36C98.1663 33.36 98.8963 33.13 99.3763 32.67C99.8563 32.21 100.096 31.56 100.096 30.72C100.096 29.88 99.8563 29.23 99.3763 28.77C98.8963 28.31 98.1663 28.08 97.1863 28.08H94.3963V33.36H97.1863ZM127.757 23.94L120.287 45H113.867L106.397 23.94H111.857L117.077 39.84L122.327 23.94H127.757ZM132.301 45.24C131.401 45.24 130.661 44.98 130.081 44.46C129.521 43.92 129.241 43.26 129.241 42.48C129.241 41.68 129.521 41.01 130.081 40.47C130.661 39.93 131.401 39.66 132.301 39.66C133.181 39.66 133.901 39.93 134.461 40.47C135.041 41.01 135.331 41.68 135.331 42.48C135.331 43.26 135.041 43.92 134.461 44.46C133.901 44.98 133.181 45.24 132.301 45.24ZM143.408 23.94V36.54C143.408 37.8 143.718 38.77 144.338 39.45C144.958 40.13 145.868 40.47 147.068 40.47C148.268 40.47 149.188 40.13 149.828 39.45C150.468 38.77 150.788 37.8 150.788 36.54V23.94H155.918V36.51C155.918 38.39 155.518 39.98 154.718 41.28C153.918 42.58 152.838 43.56 151.478 44.22C150.138 44.88 148.638 45.21 146.978 45.21C145.318 45.21 143.828 44.89 142.508 44.25C141.208 43.59 140.178 42.61 139.418 41.31C138.658 39.99 138.278 38.39 138.278 36.51V23.94H143.408ZM172.63 41.28H164.77L163.51 45H158.14L165.76 23.94H171.7L179.32 45H173.89L172.63 41.28ZM171.31 37.32L168.7 29.61L166.12 37.32H171.31Z" fill="white"/>
</svg>

<svg width="180" height="69" fill="none" xmlns="http://www.w3.org/2000/svg"><path d="M56.359.065c-.666.295-3.014 3.498-5.877 7.997-2.87 4.513-8.032 13.195-7.902 13.298.027.028.364.151.741.274 1.696.556 3.385 1.537 4.868 2.847.446.398.474.404.57.281.158-.22 2.856-4.972 4.23-7.441 2.986-5.398 5.141-9.61 6.343-12.407.474-1.105.913-2.476.865-2.682-.254-1.042-2.952-2.565-3.838-2.167zm-18.77 4.883c-9.488.555-17.933 5.336-23.123 13.1-2.087 3.12-3.577 6.632-4.34 10.24-.11.514-.192.939-.185.945.014.007.666-.013 1.456-.047 2.574-.117 7.669-.206 11.52-.206h3.762l.138-.316c.213-.507.865-1.584 1.387-2.29.583-.796 2.004-2.223 2.78-2.778a13.952 13.952 0 014.312-2.12c1.373-.39 1.956-.473 3.659-.493l1.531-.02 1.284-2.216c2.403-4.143 4.922-8.34 6.639-11.049.357-.562.645-1.036.631-1.042-.013-.014-.46-.158-1.002-.336a29.89 29.89 0 00-5.925-1.242c-.975-.103-3.652-.178-4.524-.13zm20.232 7.517c-2.011 3.758-2.636 4.903-3.604 6.639-.618 1.11-1.75 3.1-2.506 4.423-.755 1.317-1.448 2.531-1.538 2.689l-.165.281.371.576c.453.693.845 1.42 1.147 2.126.13.295.254.535.281.535.048 0 14.136-7.386 14.191-7.441.055-.048-1.194-2.408-1.73-3.279-1.29-2.091-2.499-3.607-4.325-5.431-.762-.762-1.476-1.448-1.6-1.53l-.22-.15-.302.562zM37.767 23.541c-.295.048-1.49 1.276-2.018 2.064-.721 1.077-1.147 2.106-1.435 3.45-.24 1.111-.138 3.436.192 4.3.069.172.076.158.247-.294.096-.268.213-.624.261-.803.11-.384 1.105-1.893 1.703-2.586 1.778-2.043 4.304-3.257 7.188-3.47.515-.041 1.455.02 2.3.137l.275.042-.344-.316c-.81-.74-2.327-1.598-3.584-2.023-1.187-.398-1.785-.487-3.247-.515-.735-.013-1.428-.007-1.538.014z" fill="#fff"/><path d="M35.117 24.206c-1.455.55-2.67 1.338-3.851 2.51a11.195 11.195 0 00-2.122 2.95l-.281.59.11.507a9.252 9.252 0 005.458 6.598c.322.137.769.302.995.37.227.062.453.13.508.151.055.02-.11-.22-.37-.542-.255-.315-.509-.583-.55-.596-.123-.028-1.098-2.092-1.339-2.826-1.043-3.21-.33-7.05 1.765-9.52.171-.198.302-.377.288-.39-.014-.014-.288.075-.61.198zm8.548 2.997c-2.026.158-3.934.988-5.54 2.415-.262.226-.468.432-.468.46 0 .027.193.006.433-.042.233-.048.522-.09.645-.096.117 0 .24-.034.261-.069.096-.157 2.231-.02 3.31.213 1.95.418 3.535 1.303 5.032 2.798 1.091 1.09 1.826 2.202 2.3 3.45.068.178.144.309.171.295.11-.069.22-1.207.22-2.195-.007-1.687-.336-3.168-1.037-4.664-.336-.713-.947-1.714-1.153-1.9-.172-.15-1.16-.452-1.867-.562a9.384 9.384 0 00-2.307-.103zm-27.119 3.773c-9.296.185-15.351.7-16.052 1.35-.343.323-.494.988-.494 2.14 0 1.701.254 2.216 1.201 2.428 1.813.419 5.65.741 10.985.933 2.362.082 9.18.206 11.87.206 1.738 0 1.944-.014 1.902-.11-.205-.535-.453-2.428-.453-3.456 0-1.03.248-2.922.454-3.457.04-.103-.282-.11-3.413-.096a456.7 456.7 0 00-6 .062z" fill="#fff"/><path d="M42.12 31.092c0 .028.11.158.24.288.13.13.323.35.419.494.103.144.22.26.26.26.124 0 1.175 2.161 1.401 2.881.392 1.248.46 1.701.46 3.155 0 1.152-.02 1.433-.157 2.05-.33 1.468-.982 2.916-1.806 4.013-.261.343-.46.63-.446.638.04.048.96-.33 1.572-.638 2.087-1.05 3.927-2.942 4.936-5.075.254-.542.254-.57.185-.954-.11-.59-.446-1.57-.748-2.194-.412-.844-.934-1.578-1.661-2.34a9.084 9.084 0 00-3.797-2.4c-.735-.246-.858-.267-.858-.178zm-13.944 1.639c-.144.899-.123 2.785.034 3.622.275 1.481.886 3.01 1.69 4.204l.418.624.536.171c1.057.337 1.613.419 2.821.412.907 0 1.277-.034 1.84-.151a9.885 9.885 0 003.399-1.433c.5-.343 1.682-1.434 1.469-1.365-.062.02-.391.075-.72.123-.33.048-.619.11-.64.144-.061.09-2.21-.055-2.931-.192-1.318-.254-2.85-.905-3.961-1.694-.817-.57-1.957-1.721-2.486-2.496-.46-.672-1.05-1.804-1.188-2.277-.047-.158-.11-.288-.144-.288-.027 0-.089.267-.137.596z" fill="#fff"/><path d="M43.3 35.996c-.13.35-.24.7-.253.789-.014.089-.323.61-.694 1.166-1.785 2.681-4.242 4.28-7.27 4.711-1.037.151-2.527.117-3.296-.075-.226-.055.467.549 1.147 1.008a11.404 11.404 0 003.934 1.64c.782.164 2.341.246 3.151.17l.536-.047.583-.556c2.15-2.057 3.186-5.096 2.733-8.004-.09-.59-.268-1.35-.323-1.406-.014-.013-.124.261-.247.604z" fill="#fff"/><path d="M9.99 39.837c0 .288.404 2.002.727 3.065a29.91 29.91 0 005.286 10.082c.962 1.207 3.296 3.54 4.49 4.486 2.973 2.352 6.228 4.087 9.715 5.178a29.595 29.595 0 0016.066.445c.844-.212 2.574-.74 2.732-.83.027-.02 0-.116-.069-.212-1.078-1.625-4.703-7.62-7.016-11.611l-1.456-2.51-.981.034a13.1 13.1 0 01-6.276-1.324c-2.739-1.317-4.88-3.395-6.192-6.008l-.337-.658-5.547-.041c-5.115-.041-8.43-.117-10.367-.227l-.776-.04v.17zm40.945 1.097c-.103.199-.35.61-.549.926l-.37.569 1.64 2.86c2.369 4.136 4.264 7.565 6.007 10.87l.46.879.357-.295c.666-.563 1.991-1.88 2.726-2.71a30.3 30.3 0 004.298-6.343l.37-.748-.288-.124c-.165-.068-3.35-1.447-7.092-3.058-3.735-1.612-6.927-2.99-7.092-3.06l-.288-.123-.179.357zm-2.842 3.587c-1.476 1.296-3.296 2.332-5.026 2.853-.295.09-.535.178-.535.206 0 .116 3.845 6.639 5.753 9.76 1.902 3.1 3.955 6.282 5.156 7.99 1.023 1.46 2.444 3.23 2.774 3.463.206.144.837.13 1.29-.028 1.243-.425 2.397-1.296 2.664-2.009.337-.892-3.309-8.347-8.904-18.23-.975-1.728-2.547-4.471-2.582-4.506-.007-.007-.274.22-.59.501zM86.57 23.94v4.11h-8.58v4.44h6.42v3.99h-6.42V45h-5.13V23.94h13.71zm18.746 6.78c0 1.22-.28 2.34-.84 3.36-.56 1-1.42 1.81-2.58 2.43-1.16.62-2.6.93-4.32.93h-3.18V45h-5.13V23.94h8.31c1.68 0 3.1.29 4.26.87 1.16.58 2.03 1.38 2.61 2.4.58 1.02.87 2.19.87 3.51zm-8.13 2.64c.98 0 1.71-.23 2.19-.69.48-.46.72-1.11.72-1.95 0-.84-.24-1.49-.72-1.95-.48-.46-1.21-.69-2.19-.69h-2.79v5.28h2.79zm30.571-9.42L120.287 45h-6.42l-7.47-21.06h5.46l5.22 15.9 5.25-15.9h5.43zm4.544 21.3c-.9 0-1.64-.26-2.22-.78-.56-.54-.84-1.2-.84-1.98 0-.8.28-1.47.84-2.01.58-.54 1.32-.81 2.22-.81.88 0 1.6.27 2.16.81.58.54.87 1.21.87 2.01 0 .78-.29 1.44-.87 1.98-.56.52-1.28.78-2.16.78zm11.107-21.3v12.6c0 1.26.31 2.23.93 2.91.62.68 1.53 1.02 2.73 1.02s2.12-.34 2.76-1.02c.64-.68.96-1.65.96-2.91v-12.6h5.13v12.57c0 1.88-.4 3.47-1.2 4.77-.8 1.3-1.88 2.28-3.24 2.94-1.34.66-2.84.99-4.5.99-1.66 0-3.15-.32-4.47-.96-1.3-.66-2.33-1.64-3.09-2.94-.76-1.32-1.14-2.92-1.14-4.8V23.94h5.13zm29.222 17.34h-7.86L163.51 45h-5.37l7.62-21.06h5.94L179.32 45h-5.43l-1.26-3.72zm-1.32-3.96l-2.61-7.71-2.58 7.71h5.19z" fill="#fff"/></svg>
